images/atrilast.svg

<svg height="250" viewBox="0 0 250 250" width="250" xmlns="http://www.w3.org/2000/svg"><g fill="#e41c24" fill-rule="evenodd"><path d="m139.011719 26.179688c-.015625.492187-.035157.984374-.035157 1.476562v186.03125 1.542969c-9.199218 0-18.320312 0-27.585937 0 0-.476563 0-.957031 0-1.4375 0-62.046875 0-124.089844 0-186.136719 0-.492188-.019531-.984375-.03125-1.476562zm0 0"/><path d="m159.273438 26.179688c-.0625 1.507812-.164063 3.019531-.179688 4.527343-.125 12.527344.273438 25.039063 1.25 37.53125 1.199219 15.328125 3.109375 30.554688 6.945312 45.484375 2.101563 8.183594 4.53125 16.304688 8.925782 23.570313 9.75 16.128906 22.105468 29.785156 38.683594 39.207031 8.574218 4.871094 17.765624 8.035156 27.480468 9.703125.34375.058594.683594.148437 1.078125.234375v28.953125c-2.351562-.355469-4.644531-.617187-6.90625-1.054687-19.054687-3.683594-35.722656-12.40625-50.875-24.257813-7.316406-5.726563-13.894531-12.210937-19.449219-19.683594-5.992187-8.066406-10.101562-17.09375-13.28125-26.566406-2.71875-8.09375-4.257812-16.449219-5.285156-24.902344-2.035156-16.71875-2.519531-33.519531-2.753906-50.332031-.191406-13.679688-.230469-27.367188-.339844-41.046875-.003906-.457031-.042968-.910156-.066406-1.367187zm0 0"/><path d="m105.871094 26.179688c-.023438.351562-.0625.699218-.066406 1.046874-.121094 14.703126-.058594 29.410157-.414063 44.109376-.304687 12.6875-.890625 25.378906-1.714844 38.042968-.71875 10.984375-2.324219 21.882813-5.621093 32.441406-3.175782 10.183594-7.476563 19.851563-13.855469 28.484376-6.089844 8.238281-13.4375 15.230468-21.582031 21.398437-12.292969 9.316406-25.710938 16.464844-40.585938 20.746094-4.671875 1.34375-9.425781 2.261719-14.253906 2.789062-.269532.027344-.542969.003907-.867188.003907 0-9.589844 0-19.148438 0-28.757813 2.285156-.488281 4.585938-.925781 6.859375-1.472656 15.230469-3.648438 28.390625-11.101563 39.703125-21.847657 8.4375-8.015624 15.761719-16.953124 21.398438-27.15625 4.277344-7.742187 6.746094-16.183593 8.820312-24.738281 2.421875-9.988281 3.988282-20.121093 5.125-30.328125 1.898438-17.007812 2.609375-34.074218 2.445313-51.183594-.011719-1.191406-.109375-2.386718-.167969-3.578124zm0 0"/></g></svg>

<svg xmlns="http://www.w3.org/2000/svg" xmlns:xlink="http://www.w3.org/1999/xlink" width="250px" height="250px" viewBox="0 0 250 250" version="1.1">
<g id="surface1">
<path style=" stroke:none;fill-rule:evenodd;fill:rgb(89.411765%,10.980392%,14.117648%);fill-opacity:1;" d="M 139.011719 26.179688 C 138.996094 26.671875 138.976562 27.164062 138.976562 27.65625 C 138.976562 89.667969 138.976562 151.675781 138.976562 213.6875 C 138.976562 214.175781 138.976562 214.664062 138.976562 215.230469 C 129.777344 215.230469 120.65625 215.230469 111.390625 215.230469 C 111.390625 214.753906 111.390625 214.273438 111.390625 213.792969 C 111.390625 151.746094 111.390625 89.703125 111.390625 27.65625 C 111.390625 27.164062 111.371094 26.671875 111.359375 26.179688 C 120.578125 26.179688 129.792969 26.179688 139.011719 26.179688 Z M 139.011719 26.179688 "/>
<path style=" stroke:none;fill-rule:evenodd;fill:rgb(89.411765%,10.980392%,14.117648%);fill-opacity:1;" d="M 159.273438 26.179688 C 159.210938 27.6875 159.109375 29.199219 159.09375 30.707031 C 158.96875 43.234375 159.367188 55.746094 160.34375 68.238281 C 161.542969 83.566406 163.453125 98.792969 167.289062 113.722656 C 169.390625 121.90625 171.820312 130.027344 176.214844 137.292969 C 185.964844 153.421875 198.320312 167.078125 214.898438 176.5 C 223.472656 181.371094 232.664062 184.535156 242.378906 186.203125 C 242.722656 186.261719 243.0625 186.351562 243.457031 186.4375 C 243.457031 196.03125 243.457031 205.617188 243.457031 215.390625 C 241.105469 215.035156 238.8125 214.773438 236.550781 214.335938 C 217.496094 210.652344 200.828125 201.929688 185.675781 190.078125 C 178.359375 184.351562 171.78125 177.867188 166.226562 170.394531 C 160.234375 162.328125 156.125 153.300781 152.945312 143.828125 C 150.226562 135.734375 148.6875 127.378906 147.660156 118.925781 C 145.625 102.207031 145.140625 85.40625 144.90625 68.59375 C 144.714844 54.914062 144.675781 41.226562 144.566406 27.546875 C 144.5625 27.089844 144.523438 26.636719 144.5 26.179688 C 149.421875 26.179688 154.347656 26.179688 159.273438 26.179688 Z M 159.273438 26.179688 "/>
<path style=" stroke:none;fill-rule:evenodd;fill:rgb(89.411765%,10.980392%,14.117648%);fill-opacity:1;" d="M 105.871094 26.179688 C 105.847656 26.53125 105.808594 26.878906 105.804688 27.226562 C 105.683594 41.929688 105.746094 56.636719 105.390625 71.335938 C 105.085938 84.023438 104.5 96.714844 103.675781 109.378906 C 102.957031 120.363281 101.351562 131.261719 98.054688 141.820312 C 94.878906 152.003906 90.578125 161.671875 84.199219 170.304688 C 78.109375 178.542969 70.761719 185.535156 62.617188 191.703125 C 50.324219 201.019531 36.90625 208.167969 22.03125 212.449219 C 17.359375 213.792969 12.605469 214.710938 7.777344 215.238281 C 7.507812 215.265625 7.234375 215.242188 6.910156 215.242188 C 6.910156 205.652344 6.910156 196.09375 6.910156 186.484375 C 9.195312 185.996094 11.496094 185.558594 13.769531 185.011719 C 29 181.363281 42.160156 173.910156 53.472656 163.164062 C 61.910156 155.148438 69.234375 146.210938 74.871094 136.007812 C 79.148438 128.265625 81.617188 119.824219 83.691406 111.269531 C 86.113281 101.28125 87.679688 91.148438 88.816406 80.941406 C 90.714844 63.933594 91.425781 46.867188 91.261719 29.757812 C 91.25 28.566406 91.152344 27.371094 91.09375 26.179688 C 96.023438 26.179688 100.945312 26.179688 105.871094 26.179688 Z M 105.871094 26.179688 "/>
</g>
</svg>
